X:1
T:Wuppertal, 76.86 D
T:Wuppertal, 76.86 D
T:Robert Lowry, 1875
T:Public Domain Courtesy of the Cyber Hymnal™
C:Robert Lowry, 1875
Z:Public Domain
Z:Courtesy of the Cyber Hymnal™
%%score ( 1 2 ) 3
L:1/8
Q:1/4=90
M:2/4
K:G
V:1 treble 
V:2 treble 
V:3 bass 
V:1
 D | D[DG] [DG]>[DA] | [GB] [GB]2 [GB] | [GB][Gd] [DG]>[DA] | [GB]3 [GB] | [GB][FA] [FA][FA] | %6
 [DA][DG] [DG][DG] | [DG][DF] [DF][DG] | [FA]3 D | D[DG] [DG]>[DA] | [GB] [GB]2 [GB] | %11
 [GB][Gd] [DG]>[DA] | [GB]3 [GB] | [Bd][Ac] [GB][FA] | [GB][DG] [EG][CE] | [B,D][DG] [DG]>[DF] | %16
 [DG]4 |] %17
V:2
 D | D x3 | x4 | x4 | x4 | x4 | x4 | x4 | x3 D | D x3 | x4 | x4 | x4 | x4 | x4 | x4 | x4 |] %17
V:3
 [G,B,] | [G,B,][G,B,] [G,B,]>[G,C] | [G,D] [G,D]2 [G,D] | [G,D][G,B,] [G,B,]>[G,C] | %4
 [G,D]3 [G,D] | [D,D][D,D] [D,D][D,D] | [D,C][D,B,] [D,B,][D,B,] | [D,B,][D,A,] [D,A,][D,B,] | %8
 [D,D]3 [D,C] | [G,B,][G,B,] [G,B,]>[G,C] | [G,D] [G,D]2 [G,D] | [G,D][G,B,] [G,B,]>[G,C] | %12
 [G,D]3 [G,D] | [D,D][D,D] [D,D][D,D] | [G,D][G,B,] [C,C][C,G,] | [D,G,][D,B,] [D,B,]>[D,A,] | %16
 [G,,B,]4 |] %17

